X:1
T:Hymne an den Gesang
T:Michael Haller
T:Müller von der Werra
T:Hymne an den Gesang
T:CPDL - Creative Commons Attribution Non Commercial 3.0
T:CPDL - Creative Commons Attribution Non Commercial 3.0
C:Michael Haller
Z:Müller von der Werra
Z:CPDL - Creative Commons Attribution Non Commercial 3.0
%%score [ ( 1 2 ) ( 3 4 ) ]
L:1/8
Q:1/4=90
M:4/4
K:Bb
V:1 treble-8 nm="Tenor"
V:2 treble-8 
V:3 bass nm="Bass"
V:4 bass 
V:1
"^Allegro maestoso"!f! B2 | d3 c B2 d2 | f3 e d2!p! B2 | B3 B!<(! B2!<)! e2 | !>!g2 !>!f2 z2 | %5
w: 1.~Lob-|prei- set laut und|rühmt und ehrt den|gold'- nen Hort der|Lie- der!|
w: 2.~Den|Sang, den schön der|Frie- de schückt, hat|Gott uns stets ge-|ge- ben.|
w: 3.~Wenn|ho- he Freud' das|Lied ver- schönt, da|wohnt sich's gut auf|Er- den!|
"^meno vivo" d2 | c3 c f2 c2 | e3 d d2 B2 |!<(! c2 f2!<)! a3 g |!>(! g2 f2!>)! z2 |!p! F2 | %11
w: Er|klingt vom Him- mel|reich be- schert in|al- len Lan- den|wie- der.|Er|
w: Er|ist's, der je- des|Herz ent- zückt und|schwellt zum ed- len|Stre- ben.|Er|
w: Es|wird der lich- te|Geist ge- krönt, es|webt ein gött- lich|Wer- den!|Voll|
"^accelerando"!<(! F2 FG!<)! A2 F2 | A2 AB c2 F2 |!f! c2 cd"^ritard." e2 ef | gfed !fermata!c2 | %15
w: mah- net mit Macht, dass|Al- les er- wacht, dass|Al- les die Hand sich *|reicht * zum Ver- band.|
w: weckt in der Brust die|bes- se- re Lust, führt|fern uns vom Wahn glück- *|se- * lig die Bahn!|
w: hei- li- ger Glut wallt|feu- rig das Blut zum|Op- fer be- reit in _|dräu- * en- der Zeit!|
 z2 | z8 | z4 z2!f! c2 | d2 z D DF Bd | f3 e d2 z2 | %20
w: ||da|horcht! es schallt * mit *|All- ge- walt:|
w: |||||
w: |||||
!f!"^1. Frie-de\n2. Freu-de\n3. Frei-heit""^Feierlich" !>!g4 f4 |"^blüh'\nsprüh'\nglüh'" f3 e d2 | %22
w: |* im Sang|
w: ||
w: ||
"^meno vivo" d2 | e2 c2 !>!f3 e |!>(! d6!>)! z2 | %25
w: als|ho- her * *||
w: |||
w: |||
!ff!"^1. Frie   -  de\n2. Freu  -  de\n3. Frei   -  heit" g4 f4 | %26
w: |
w: |
w: |
"^blüh'\nsprüh'\nglüh'" f3 e d2 d2 | (c2 d2) (e2 c2) | d6 c2 | !fermata!B6 |] %30
w: * im Sang als|ho- * her _|_ _||
w: ||||
w: ||||
V:2
 B2 | B3 A B2 d2 | c3 c B2 _A2 | G3 G G2 B2 | e2 d2 x2 | B2 | A3 A c2 A2 | c3 B B2 B2 | %8
w: ||||||||
 A2 d2 f2 =e2 | c2 c2 x2 | F2 | F2 FG A2 F2 | F2 FG A2 F2 | A2 AB c2 cd | edcB A2 | x2 | x8 | %17
w: |||||||||
 x4 x2 c2 | d2 x D DF Bd | f3 e d2 x2 | e4 d4 | c3 c B2 | B2 | B2 A2 B2 A2 | B6 x2 | (B2 e4) d2 | %26
w: ||||||* * Fei- er-|klang!||
 d2 c2 B2 =B2 | (c2 =B2) c4 | B4 A4 | F6 |] %30
w: ||Fei- er-|klang!|
V:3
!f! B,2 | F,3 F, B,2 B,2 | A,3 A, B,2!p! F,2 | E,3 E,!<(! E,2!<)! G,2 | !>!B,2 !>!B,2 z2 | F,2 | %6
w: ||||||
 F,2 F,2 F,2 F,2 | F,3 F, F,2 F,2 |!<(! F,2 A,2!<)! C3 B, |!>(! B,2 A,2!>)! z2 |!p! F,2 | %11
w: |||||
!<(! F,2 F,F,!<)! F,2 F,2 | F,2 F,F, F,2 F,2 |!f! F,2 F,F, A,2 A,2 | A,2 A,F, !fermata!F,2 | %15
w: ||||
 z!f! F, | B,2 z B,, B,,D, F,B, | D3 C B,2!f! F,2 | B,2 z B,, B,,D, F,B, | D3 C B,2 z2 | %20
w: 1\-3.~Da|horcht! es schallt * mit *|All- ge- walt, *|||
!f! !>!B,4 B,4 | F,2 A,2 F,2 | F,2 | G,2 F,2 !>!F,2 F,2 |!>(! F,6!>)! z2 |!ff! (G,2 A,2) B,4 | %26
w: ||||||
 A,3 A, B,2 G,2 | G,4 G,4 | F,4 E,4 | !fermata!D,6 |] %30
w: ||||
V:4
 B,2 | (B,,2 D,)F, B,2 B,2 | F,2 F,,2 B,,2 D,2 | E,3 E, E,2 G,2 | B,2 B,,2 x2 | B,,2 | %6
 F,2 C,2 A,,2 F,,2 | B,,3 B,, B,,2 D,2 | F,2 D,2 C,2 C,2 | F,2 F,,2 x2 | F,2 | %11
 F,2 F,F, [F,,F,]2 F,2 | F,2 F,F, [F,,F,]2 F,2 | F,2 F,F, F,2 F,2 | F,2 F,F, F,2 | x F, | %16
 B,2 x B,, B,,D, F,B, | D3 C B,2 F,2 | B,2 x B,, B,,D, F,B, | D3 C B,2 x2 | E,4 B,,4 | %21
 A,,2 F,,2 B,,2 | D,2 | C,2 E,2 D,2 C,2 | B,,6 x2 | E,4 B,,4 | F,3 F, G,2 G,F, | %27
 (E,2 D,2) (C,2 E,2) | F,4 F,,4 | B,,6 |] %30

